X: 18586
T: I Ne'er Shall Wean Her
R: jig
M: 6/8
K: Bminor
|:FAA AFE|FAA d2c|BdB BAB|def f2e|
def a2b|afe d2e|fbb fge|dBB B3:|
|:faa afe|faa a2e|fbb bab|c'ba b2c|
def a2b|afe d2e|fbb fge|dBB B3:|

